X:1
T:4 Old English Lyrics
T:Spring, the Sweet Spring
T:4 Old English Lyrics
T:Frederick Delius
T:3. Spring, the Sweet Spring
T:Thomas Nash
T:Creative Commons copyright waiver (CC0 1.0 Universal)
T:Creative Commons copyright waiver (CC0 1.0 Universal)
T:Creative Commons copyright waiver (CC0 1.0 Universal)
T:Creative Commons copyright waiver (CC0 1.0 Universal)
C:Frederick Delius
Z:Thomas Nash
Z:Creative Commons copyright waiver (CC0 1.0 Universal)
%%score 1 { ( 2 3 7 ) | ( 4 5 6 ) }
L:1/8
Q:1/4=88
M:4/4
K:C
V:1 treble nm="Voice"
V:2 treble nm="Piano"
V:3 treble 
V:7 treble 
V:4 bass 
V:5 bass 
V:6 bass 
V:1
"^Gaily, with changing tempi, but not hurried" z8 | %1
w: |
!f!"^https://www.lieder.net/lieder/get_text.html?TextId=12004" A3/2 A/ B2 d2- (3d ^c B | %2
w: Spring, the sweet spring, _ is the|
 (A^F) B B (d2 ^f) e | d3 ^c B2 z =F | B2 ^f e/ d/ (B A3) |!mf! B2 A A E2 z B | %6
w: year’s _ plea- sant king; _ Then|blooms each thing, then|maids dance in a ring, _|Cold doth not sting, the|
 A A B E[Q:1/4=80]"^poco rit." e4 |[Q:1/4=88]"^a tempo" z2 z!f! d _B3 D | F _B d2 z A d3/2 _B/ | %9
w: pret- ty birds do sing,|Cuck- oo, jug-|\- jug, pu- we, to- wit- ta-|
 f4 z4 | z!mp! d =B2 z D E B | d2 z3/2 A/ B/ d/ !fermata!d2 z/ A/ | %12
w: woo!|Cuck- oo, jug- jug, pu-|we, to- wit- ta- woo! The|
!mf! B3/2 B/ e B (A/^F/) (E/D/) (EF/) E/ | d4 (3(GAB) d3/2 ^A/ | ^f3 B d B e B | %15
w: palm and may make coun- * try * hou- * ses|gay, Lambs _ _ frisk and|play, the shep- herds pipe all|
 (d^F) F ^E F A B2 | d3/2 d/ ^f e (g2 a2) | z!p! B ^F d B z z D | A2 z/ B/ e/ A/ d2 z B | %19
w: day, _ And we hear aye birds|tune this mer- ry lay, _|Cuck- oo, jug- jug, pu-|\- we, to- wit- ta- woo! The|
!mf![Q:1/4=84] c2 A2 (cB A) E | A E G B A2- A z |!p![Q:1/4=82] ^F2 B F (A F3) | %22
w: fields breathe sweet, _ _ the|dai- sies kiss our feet, _|Young lov- ers meet, _|
!mp![Q:1/4=80] (=F=c) =F3/2 G/ _A _E D2 | z!f!"^Tempo I"[Q:1/4=88]"^cresc." ^F (3B B B d d e B | %24
w: old _ wives a- sun- ning sit,|In ev- e- ry street these tunes our|
!ff! ^f3 e d4 | z d A2 z ^F A B | d2 z A B3/2 B/ e2 |!ff![Q:1/4=84] d2- d/ d/ e (g4 | %28
w: ears do greet \_|Cuck- oo, jug- jug, pu-|\- we, to- wit- ta- woo!|Spring, * the sweet Spring!|
[Q:1/4=60]!>(! ^f4-) f2!>)!!pp! z2 |] %29
w: _ _|
V:2
!f! ([d^fd']/b/a/f/!>(!e/d/B/A/) (!trill(!T^F3 E)!>)! | %1
!mf![I:staff +1] [^F,D]2[I:staff -1] [B,DB]2 (A/^F/E/D/) EF/E/ | DB,B,>A, B,D D2 | %3
!<(![I:staff +1] [^F,C^F]2[I:staff -1] d>^f!<)! (e/!>(!d/B/A/) B>!>)!^c | %4
 d!<(!B B/e/^f/b/!<)!!>(! ([dd']/b/a/f/) e>a!>)! |!mp! gee>a (g/e/d/B/) [B,^DA]2 | %6
 GEE>e"_poco rit." (d/_B/^G/E/ !tenuto!.!fermata!D>)=g |"_a tempo" fdd>=g (f/d/c/A/ =G>)g | %8
 fdd>b (d'/b/a/^f/ [G_Bde]>)g |!>(! =fdd>d'!>)!!p! (c'/a/g/!<(!e/ d>)A!<)! | %10
 [^FB]2 [GBd]>"_dim."b (a/^f/e/d/ e)f/e/ |!p!!>(! dBB>A!>)! B2!pp! !fermata![=FAd]2 | %12
!mf! [EGBe]2 [^CEGB]2 (A/^F/E/D/-) EF/E/ | D4[I:staff +1] B,[I:staff -1]D D2 | %14
!f! [A,B,^D^FB]2 ^f>b (d'/b/a/f/ e)f/e/ | dB e>b ^f2 [de]2 | %16
 d'[^f^f'] [e^gbe']2!>(! (g'/e'/d'/b/ [A^cea])[c^c']/[Bb]/ | [Ada]!>)!!p![^D^F][=DF]>E [FB]2 d>^f | %18
 d!>(!BB>A!>)! (B2 d2) |!mf! [EAce]2 [D=FAd]2 (c/A/G/E/) [A,CG]2 | %20
 [A,^CA]2 G>B (A/^F/E/C/) B,C/B,/ |!p! A,[I:staff +1]^F,F,>[I:staff -1]B [=D=d]2 [^C^F^c]2 | %22
!mp! [=F=c=f]2 [_E_A_e][Dd] e/_c/_B/A/ [=DB]2 |!f! [^F=Bd]2 d'>b (a/^f/e/d/ e)f/e/ | %24
 dBB>A [D^FB]2 [=F_Bd]2 | [Ad^f]!mf![=Bdb] [Ada]g/f/ e/d/B [GA]2 | Bd ^c/B/A [=DB]2 [^Cc]2 | %27
!ff! [^F=c^f][dgd']/[Bb]/ [Ada]/[Ff]/[E^Ge]/[Dd]/ [Dd]2 [^C^c]2 | %28
 (b/4a/4(3^f/4d/4B/4A) ^F2 !fermata![Bd]4 |] %29
V:3
 x4 ^C4 | z4 A,2[I:staff +1] B,2 | ^F,2 [E,^G,]2 [D,=G,]2 [D,F,B,]2 | %3
 x2[I:staff -1] [DG]2 ^F2 =F2 | [DG]2 [D^F]2 [DA]2 [A=c]2 | [GB]2 [A,GB^c]2 [GB]2 G>=F | %6
 [G,^C]2 [G,D]2 [DE]4 | x8 | [=F_B]2 [^F=B]2 [d^f]2 x2 | ^G4 c2 [D=G]2 | %10
[I:staff +1] ED [DE]2[I:staff -1] [Ad]2 x2 | ^F2 =G2 F2 x2 | x4 =CB, D2 |[I:staff +1] CB,B,>A, x4 | %14
 x2[I:staff -1] [GB]2 x4 | A2 B2 (d/B/A/^F/) =EF/E/ | [d^fa]2 x2 [=gb]2 x2 | x6 [B,DGA]2 | %18
 [_EA]2 [^CG]2 [D^F]4 | x4 [CE][B,D] x2 | x2 [A,^D]2 [A,^C]2 x2 | %21
[I:staff +1] E, x3[I:staff -1] A^F x2 | x4 [_E_A]2 (=EF) | ED [GAd]2 [Ad]2 x2 | (D2 C2) x4 | %25
 x4 B^F (DE) | ^F=F E^D (^FE) (FE) | x4 =G4 | BA x2 !arpeggio![D^FA]4 |] %29
V:4
[I:staff -1] [B,D^FA]4[I:staff +1] (!trill(!TA,3 G,) | [D,,A,,]2 [G,,D,]2 [^F,,D,]2 [G,,D,]2 | %2
 [B,,D,]2 [E,,B,,]2 [G,,,G,,]2 [B,,,^F,,B,,]2 | [D,,A,,D,]2 [G,,D,B,]2 D4 | %4
 [G,,D,B,]2 [B,,A,]2 ^F,2[I:staff -1] [A,G]2 |[I:staff +1] [E,,B,,G,]2 x2 [=C,,G,,E,]2 [B,,A,]2 | %6
 [A,,,E,,A,,]2 [=C,,G,,E,]2 [_B,,^G,]4 | %7
[I:staff -1] [A,=G^c]2 [_A,_G=c]2[I:staff +1] [G,,D,_B,=F]4 |[K:treble] D4 [AB]2 [A,DE]2 | %9
 =F4 [A,DF]2[K:bass] [F,=B,]2 | A,2 A,2 [B,D^F]2[I:staff -1] [DE^GB]2 | %11
[I:staff +1] [_A,CD]2 [_E,^C]2 =C2 !fermata!B,2 | %12
 [C,,G,,E,]2 [E,,A,,G,]2 [^F,,^D,][G,,E,] [_B,,^G,]2 | ^F,4 [=F,A,]2 [E,_B,]2 | %14
 [^F,,^D,]2 [E,=D]2[I:staff -1] [A,^FB]2 [=DEGBd]2 | %15
[I:staff +1] ^D2 ^F^E [A,F]2[I:staff -1] [DGB]2 | %16
[I:staff +1][K:treble] [CD^FA]2 [DE^GB]2 [=F=GBd]2 [G,A,^CE]2 | %17
[K:bass] [=C,_B,E][B,,A,] [E,,B,,^G,]2 (D/B,/A,/^F,/ E,2) | =F,2 [A,,E,B,]2 (B,2 A,2) | %19
 [G,A,=C]2 [=F,A,]2 G,F, E,2 | [E,,A,,E,]2 =C,B,, [E,,A,,E,]2 [=F,A,]2 | %21
 [^F,,^C,]2 [B,,,F,,B,,^D,]2 [^F,B,]2 [F,,^D,A,]2 | %22
 [=D,_A,=C]2 [=F,,=C,_A,]2 [_A,,F,_C]2 ([_C,_A,]_B,,) | %23
 [=A,,^F,=B,]2 [G,,D,B,]2 [B,,F,D]2[I:staff -1] [DE^GB]2 | %24
[I:staff +1] B,/A,/^G, [E,,A,,=G,]2 [D,,A,,^F,]2 [^G,D]2 | %25
[I:staff -1] [D^F][I:staff +1][=G,D] [^F,D]2 [G,D][^G,D] (B,^C) | A,^G, A,2 (A,G,) =G,2 | %27
 [A,,D,^F,=CD][G,,D,B,][^F,,D,A,][E,,_B,,^G,] [E,,A,,=G,]4 | %28
 !fermata![=CE^F]2 [A,,,A,,G,B,^C]2 [A,B,]4 |] %29
V:5
 x8 | x8 | x8 | x4 B,,4 | x8 | x8 | x8 | x8 |[K:treble] ^G,2 A,4 x2 | C2 _B,2 x2[K:bass] x2 | x8 | %11
 x4 D,4 | x8 | A,,2 _A,,2 [G,,D,]4 | x8 | ^E,^F, ^G,2 x4 |[K:treble] x8 |[K:bass] x4 [A,,,A,,]4 | %18
 x4 [D,,A,,^F,]4 | x2 C,B,, A,,2- A,,G,,/F,,/ | x2 F,,2 x2 [D,,A,,D,]2 | x8 | x8 | x8 | A,,2 x6 | %25
 x6 A,2 | D,2 ^C,^F, B,,2 A,,2 | x8 | x4 [D,,A,,^F,]4 |] %29
V:6
 x8 | x8 | x8 | x4 (A,3 ^G,) | x8 | x8 | x8 | x8 |[K:treble] x8 | x6[K:bass] x2 | x8 | x8 | x8 | %13
 x8 | x8 | x8 |[K:treble] x8 |[K:bass] x8 | x8 | x8 | x8 | x8 | x8 | x8 | x8 | x8 | x8 | x8 | x8 |] %29
V:7
 x8 | x8 | x8 | x8 | x8 | x8 | x8 | x8 | x8 | x8 | x8 | x8 | x8 | x8 | x8 | x8 | x8 | x8 | x8 | %19
 x8 | x8 | x8 | x8 | x8 | ^F3 E x4 | x8 | x8 | x4 B3 A | x8 |] %29

